img/sort-by.svg

<svg fill="none" height="800" viewBox="0 0 24 24" width="800" xmlns="http://www.w3.org/2000/svg">
    <path clip-rule="evenodd"
          d="m3.46447 20.5355c1.46446 1.4645 3.82148 1.4645 8.53553 1.4645 4.714 0 7.0711 0 8.5355-1.4645 1.4645-1.4644 1.4645-3.8215 1.4645-8.5355 0-4.71405 0-7.07107-1.4645-8.53553-1.4644-1.46447-3.8215-1.46447-8.5355-1.46447-4.71405 0-7.07107 0-8.53553 1.46447-1.46447 1.46446-1.46447 3.82148-1.46447 8.53553 0 4.714 0 7.0711 1.46447 8.5355zm11.28553-4.5355c0 .4142-.3358.75-.75.75h-4c-.41421 0-.75-.3358-.75-.75s.33579-.75.75-.75h4c.4142 0 .75.3358.75.75zm1.25-3.25c.4142 0 .75-.3358.75-.75s-.3358-.75-.75-.75h-8c-.41421 0-.75.3358-.75.75s.33579.75.75.75zm2.75-4.75c0 .41421-.3358.75-.75.75h-12c-.41421 0-.75-.33579-.75-.75s.33579-.75.75-.75h12c.4142 0 .75.33579.75.75z"
          fill="#ffffff" fill-rule="evenodd"/>
</svg>

<?xml version="1.0" encoding="UTF-8" standalone="no"?>
<svg width="100%" height="100%" viewBox="0 0 800 800" version="1.1" xmlns="http://www.w3.org/2000/svg"
     style="fill-rule:evenodd;clip-rule:evenodd;stroke-linejoin:round;stroke-miterlimit:2;">
    <g transform="matrix(25,0,0,25,100,100)">
        <path fill="black" d="M3.464,20.536C4.929,22 7.286,22 12,22C16.714,22 19.071,22 20.536,20.536C22,19.071 22,16.714 22,12C22,7.286 22,4.929 20.536,3.464C19.071,2 16.714,2 12,2C7.286,2 4.929,2 3.464,3.464C2,4.929 2,7.286 2,12C2,16.714 2,19.071 3.464,20.536ZM14.75,16C14.75,16.414 14.414,16.75 14,16.75L10,16.75C9.586,16.75 9.25,16.414 9.25,16C9.25,15.586 9.586,15.25 10,15.25L14,15.25C14.414,15.25 14.75,15.586 14.75,16ZM16,12.75C16.414,12.75 16.75,12.414 16.75,12C16.75,11.586 16.414,11.25 16,11.25L8,11.25C7.586,11.25 7.25,11.586 7.25,12C7.25,12.414 7.586,12.75 8,12.75L16,12.75ZM18.75,8C18.75,8.414 18.414,8.75 18,8.75L6,8.75C5.586,8.75 5.25,8.414 5.25,8C5.25,7.586 5.586,7.25 6,7.25L18,7.25C18.414,7.25 18.75,7.586 18.75,8Z"/>
    </g>
</svg>
